X: 60
T:Frankie Kennedy's
M:4/4
L:1/8
C:Reel
H:(*)
K:D
d2de fded | ABAG FDDe | fdec ABAG | EFGE D2de |!
fded A3G | EFGE A2de | fdec ABAG | EFGE D2FA :|!
d3e f2ge | dfed cAA2 | G3A GEE2 | edcA GEE2 |!
d3e f2ge | dfed cAA2 | f2af gee2 | gafe d4 :||
